assets/svg/single/automotive.svg

<svg width="36" height="36" viewBox="0 0 36 36" fill="none" xmlns="http://www.w3.org/2000/svg">
<g opacity="0.8">
<path fill-rule="evenodd" clip-rule="evenodd" d="M18 5.75C11.2345 5.75 5.75 11.2345 5.75 18C5.75 24.7655 11.2345 30.25 18 30.25C24.7655 30.25 30.25 24.7655 30.25 18C30.25 11.2345 24.7655 5.75 18 5.75ZM4 18C4 10.268 10.268 4 18 4C25.732 4 32 10.268 32 18C32 25.732 25.732 32 18 32C10.268 32 4 25.732 4 18ZM9.17276 16.8899C9.12749 17.2536 9.10417 17.6241 9.10417 18C9.10417 18.2534 9.11476 18.5044 9.13554 18.7525C11.1881 18.5512 13.1123 19.0812 14.4805 20.4602C15.8746 21.8653 16.5522 24.0109 16.3508 26.7433C16.8852 26.8434 17.4365 26.8958 18 26.8958C18.5635 26.8958 19.1148 26.8434 19.6492 26.7433C19.4448 23.9723 20.1454 21.804 21.5786 20.4015C22.9439 19.0656 24.8418 18.5542 26.8645 18.7525C26.8852 18.5044 26.8958 18.2534 26.8958 18C26.8958 17.6256 26.8727 17.2565 26.8278 16.8942C23.9854 15.9215 21.0054 15.4085 18 15.3751C15.0224 15.4079 12.0698 15.9117 9.25137 16.8672C9.22527 16.8761 9.19904 16.8836 9.17276 16.8899ZM26.5453 20.481C24.9821 20.3597 23.6887 20.7852 22.8026 21.6523C21.8941 22.5413 21.2833 24.0225 21.3727 26.2342C23.8631 25.2131 25.7877 23.095 26.5453 20.481ZM14.6274 26.2343C12.1369 25.2131 10.2123 23.095 9.45473 20.481C11.0415 20.3579 12.3502 20.7978 13.2382 21.6928C14.1233 22.5849 14.7155 24.0553 14.6274 26.2343ZM9.65947 14.8993C12.3603 14.0849 15.165 13.6552 17.9906 13.625L18.0094 13.6251C20.8351 13.6555 23.6398 14.0853 26.3406 14.8995C25.082 11.5152 21.8226 9.10417 18 9.10417C14.1775 9.10417 10.9181 11.5151 9.65947 14.8993ZM7.64583 18C7.64583 12.2816 12.2816 7.64583 18 7.64583C23.7184 7.64583 28.3542 12.2816 28.3542 18C28.3542 23.7184 23.7184 28.3542 18 28.3542C12.2816 28.3542 7.64583 23.7184 7.64583 18ZM19.3125 18.4375C19.3125 18.7856 19.1742 19.1194 18.9281 19.3656C18.6819 19.6117 18.3481 19.75 18 19.75C17.6519 19.75 17.3181 19.6117 17.0719 19.3656C16.8258 19.1194 16.6875 18.7856 16.6875 18.4375C16.6875 18.0894 16.8258 17.7556 17.0719 17.5094C17.3181 17.2633 17.6519 17.125 18 17.125C18.3481 17.125 18.6819 17.2633 18.9281 17.5094C19.1742 17.7556 19.3125 18.0894 19.3125 18.4375Z" fill="#151931"/>
</g>
</svg>

<svg width="36" height="36" fill="none" xmlns="http://www.w3.org/2000/svg"><path fill-rule="evenodd" clip-rule="evenodd" d="M18 5.75a12.25 12.25 0 1 0 0 24.5 12.25 12.25 0 0 0 0-24.5ZM4 18a14 14 0 1 1 28 0 14 14 0 0 1-28 0Zm5.17-1.11a8.98 8.98 0 0 0-.03 1.86c2.05-.2 3.97.33 5.34 1.71 1.4 1.4 2.07 3.55 1.87 6.28a8.95 8.95 0 0 0 3.3 0c-.2-2.77.5-4.94 1.93-6.34a6.46 6.46 0 0 1 5.28-1.65 9.05 9.05 0 0 0-.03-1.86A28.23 28.23 0 0 0 18 15.38a28.22 28.22 0 0 0-8.83 1.51Zm17.38 3.6a4.67 4.67 0 0 0-3.75 1.16c-.9.9-1.52 2.37-1.43 4.58a8.92 8.92 0 0 0 5.18-5.75Zm-11.92 5.74a8.92 8.92 0 0 1-5.18-5.75c1.6-.12 2.9.32 3.79 1.21.88.9 1.48 2.37 1.39 4.54ZM9.66 14.9c2.7-.82 5.5-1.24 8.33-1.28h.02c2.83.04 5.63.47 8.33 1.28a8.9 8.9 0 0 0-16.68 0ZM7.65 18a10.35 10.35 0 1 1 20.7 0 10.35 10.35 0 0 1-20.7 0Zm11.66.44a1.31 1.31 0 1 1-2.62 0 1.31 1.31 0 0 1 2.62 0Z" fill="#151931" opacity=".8"/></svg>
